front/src/lib/assets/logos/logo-dora-full.svg

<svg width="127" height="51" viewBox="0 0 127 51" fill="none" xmlns="http://www.w3.org/2000/svg">
<path d="M25.7427 22.3488C27.0469 23.6508 27.0469 25.7612 25.7427 27.1256C24.4406 28.4298 22.268 28.4298 20.967 27.1256C19.6628 25.8235 19.6628 23.6508 20.967 22.3488C22.2691 21.0446 24.4417 21.0446 25.7427 22.3488Z" fill="#5B12EB"/>
<path d="M24.8342 6.79012H8.42088C7.59046 6.79012 6.9162 7.46438 6.9162 8.2948V43.7235C6.9162 44.5539 7.59046 45.2282 8.42088 45.2282H24.8353C34.3224 45.2282 42.0125 37.537 42.0125 28.0488V23.9684C42.0125 14.4803 34.3224 6.78906 24.8353 6.78906L24.8342 6.79012ZM23.3221 37.1793C23.3221 37.1793 13.4594 32.8362 13.4594 24.7071C13.4594 19.2465 17.8626 14.8411 23.3221 14.8411C28.7816 14.8411 33.187 19.2476 33.187 24.7071C33.187 32.8362 23.3221 37.1793 23.3221 37.1793Z" fill="#5B12EB"/>
<path d="M51.7455 36.334H52.119V34.4537H52.8429C53.6195 34.4537 54.0986 34.0158 54.0986 33.3563C54.0986 32.6968 53.6195 32.2473 52.8429 32.2473H51.7455V36.334ZM52.8492 32.5744C53.3863 32.5744 53.7071 32.8667 53.7071 33.3447C53.7071 33.8227 53.3863 34.1266 52.8492 34.1266H52.119V32.5734H52.8492V32.5744ZM54.8847 36.334H55.2287V31.955H54.8847V36.334ZM57.1607 36.4153C57.569 36.4153 57.9669 36.2401 58.2169 35.9077V36.334H58.5556V34.3197C58.5556 33.6718 58.1125 33.2751 57.435 33.2751C56.9275 33.2751 56.5244 33.4914 56.2733 33.8354L56.536 34.0401C56.7344 33.7594 57.0436 33.5906 57.4234 33.5906C57.8845 33.5906 58.2169 33.847 58.2169 34.3208V34.5951L57.166 34.7703C56.5476 34.8758 56.2089 35.1786 56.2089 35.6229C56.2089 36.1072 56.5888 36.4163 57.1607 36.4163V36.4153ZM56.5592 35.6155C56.5592 35.3232 56.7756 35.1079 57.2419 35.0256L58.2169 34.8621V35.5332C57.9953 35.913 57.6271 36.1167 57.2008 36.1167C56.804 36.1167 56.5582 35.9004 56.5582 35.6144L56.5592 35.6155ZM59.8081 35.4055C59.8081 36.1241 60.1933 36.3921 60.7947 36.3921C60.9815 36.3921 61.1271 36.3689 61.2622 36.3224V36.0069C61.1451 36.0481 61.0174 36.0713 60.8306 36.0713C60.4339 36.0713 60.1595 35.9426 60.1595 35.4055V33.7003H61.2632V33.3911H60.1595V32.6557H59.8092V33.3911H59.2542V33.7003H59.8092V35.4055H59.8081ZM64.5733 35.8487L64.3106 35.6387C64.0943 35.9426 63.7503 36.1346 63.3356 36.1346C62.6118 36.1346 62.1042 35.5912 62.1042 34.8441V34.7745H64.4805C64.4984 34.7048 64.5037 34.6173 64.5037 34.5297C64.5037 33.8354 64.0014 33.274 63.2132 33.274C62.3321 33.274 61.7476 33.9514 61.7476 34.8621C61.7476 35.7199 62.3722 36.4501 63.3356 36.4501C63.8727 36.4501 64.3043 36.2169 64.5733 35.8487ZM63.2069 33.5779C63.7788 33.5779 64.1354 33.9863 64.1523 34.5001H62.138C62.2488 33.9219 62.6571 33.5779 63.2058 33.5779H63.2069ZM65.0228 33.3911V33.7003H65.5779V36.333H65.9282V33.7003H67.0319V33.3911H65.9282V32.9944C65.9282 32.5333 66.1909 32.2705 66.5708 32.2705C66.7576 32.2705 66.9032 32.3233 67.0319 32.4162L67.1838 32.1239C67.0435 32.0363 66.8283 31.955 66.5592 31.955C65.9757 31.955 65.5779 32.3697 65.5779 32.9997V33.3911H65.0228ZM68.7972 33.274C67.857 33.274 67.2208 34.0211 67.2208 34.8621C67.2208 35.703 67.857 36.4501 68.7972 36.4501C69.7374 36.4501 70.3789 35.703 70.3789 34.8621C70.3789 34.0211 69.7427 33.274 68.7972 33.274ZM68.8035 36.123C68.085 36.123 67.5774 35.5332 67.5774 34.8621C67.5774 34.191 68.085 33.6011 68.8035 33.6011C69.5221 33.6011 70.0117 34.1846 70.0117 34.8621C70.0117 35.5395 69.4979 36.123 68.8035 36.123ZM71.2526 36.333H71.5966V34.2258C71.8182 33.8575 72.0809 33.6592 72.484 33.6592C72.5895 33.6592 72.6655 33.6771 72.7531 33.7003V33.3679C72.6771 33.3447 72.5895 33.3331 72.5083 33.3331C72.1115 33.3331 71.8372 33.5083 71.5977 33.8122V33.3922H71.2537V36.3351L71.2526 36.333ZM73.5329 36.333H73.8769V34.2195C74.0752 33.8459 74.3791 33.6011 74.8223 33.6011C75.3013 33.6011 75.6221 33.9103 75.6221 34.4822V36.333H75.9661V34.4706C75.9661 34.3893 75.9598 34.307 75.9482 34.2311C76.193 33.8048 76.4969 33.6001 76.9052 33.6001C77.3843 33.6001 77.7114 33.9092 77.7114 34.4811V36.3319H78.0501V34.4695C78.0501 33.6929 77.5943 33.273 76.9527 33.273C76.4452 33.273 76.1117 33.5178 75.8606 33.904C75.6918 33.4893 75.3235 33.273 74.8677 33.273C74.4118 33.273 74.1143 33.4713 73.8747 33.7805V33.389H73.5308V36.3319L73.5329 36.333ZM81.6936 35.8487L81.4309 35.6387C81.2146 35.9426 80.8706 36.1346 80.4559 36.1346C79.732 36.1346 79.2245 35.5912 79.2245 34.8441V34.7745H81.6008C81.6187 34.7048 81.624 34.6173 81.624 34.5297C81.624 33.8354 81.1217 33.274 80.3335 33.274C79.4524 33.274 78.8678 33.9514 78.8678 34.8621C78.8678 35.7199 79.4925 36.4501 80.4559 36.4501C80.993 36.4501 81.4246 36.2169 81.6936 35.8487ZM80.3272 33.5779C80.8991 33.5779 81.2557 33.9863 81.2726 34.5001H79.2583C79.3691 33.9219 79.7774 33.5779 80.3261 33.5779H80.3272ZM83.8451 34.8621C83.8451 35.7199 84.4466 36.4501 85.3635 36.4501C85.8246 36.4501 86.2161 36.257 86.4905 35.913V36.333H86.8345V31.954H86.4905V33.8101C86.2161 33.4661 85.8246 33.273 85.3635 33.273C84.4466 33.273 83.8451 34.0031 83.8451 34.861V34.8621ZM84.2071 34.8621C84.2071 34.1678 84.6977 33.6011 85.392 33.6011C85.8415 33.6011 86.2446 33.8111 86.4894 34.2142V35.5099C86.2499 35.9067 85.8468 36.123 85.392 36.123C84.6977 36.123 84.2071 35.5564 84.2071 34.8621ZM90.5308 35.8487L90.268 35.6387C90.0517 35.9426 89.7077 36.1346 89.293 36.1346C88.5692 36.1346 88.0616 35.5912 88.0616 34.8441V34.7745H90.4379C90.4558 34.7048 90.4611 34.6173 90.4611 34.5297C90.4611 33.8354 89.9588 33.274 89.1706 33.274C88.2896 33.274 87.705 33.9514 87.705 34.8621C87.705 35.7199 88.3296 36.4501 89.293 36.4501C89.8301 36.4501 90.2617 36.2169 90.5308 35.8487ZM89.1643 33.5779C89.7362 33.5779 90.0929 33.9863 90.1097 34.5001H88.0954C88.2062 33.9219 88.6145 33.5779 89.1632 33.5779H89.1643ZM92.9566 36.333H93.3006V31.954H92.9566V36.333ZM94.5605 33.7404L95.1155 32.2463H94.7188L94.246 33.7404H94.5615H94.5605ZM96.2277 32.4615C96.3733 32.4615 96.4904 32.3507 96.4904 32.1988C96.4904 32.0585 96.3733 31.9424 96.2277 31.9424C96.0821 31.9424 95.9586 32.0595 95.9586 32.1988C95.9586 32.3507 96.081 32.4615 96.2277 32.4615ZM96.0525 36.3319H96.3965V33.389H96.0525V36.3319ZM97.5519 36.3319H97.8959V34.2184C98.1238 33.8385 98.433 33.6001 98.9004 33.6001C99.4143 33.6001 99.7583 33.9325 99.7583 34.5402V36.333H100.102V34.5286C100.102 33.7172 99.618 33.273 98.9469 33.273C98.4858 33.273 98.1534 33.4713 97.8959 33.7921V33.389H97.5519V36.3319ZM102.508 36.1219C101.784 36.1219 101.277 35.5553 101.277 34.861C101.277 34.1667 101.784 33.6001 102.503 33.6001C102.911 33.6001 103.25 33.7932 103.46 34.0907L103.734 33.8744C103.465 33.5125 103.034 33.273 102.503 33.273C101.551 33.273 100.921 34.0031 100.921 34.861C100.921 35.7189 101.552 36.4491 102.503 36.4491C103.034 36.4491 103.466 36.2095 103.734 35.8476L103.46 35.6313C103.25 35.9289 102.916 36.1219 102.508 36.1219ZM104.508 36.3319H104.852V31.9529H104.508V36.3319ZM108.121 35.0826C108.121 35.7484 107.747 36.1219 107.204 36.1219C106.66 36.1219 106.281 35.7484 106.281 35.0826V33.3901H105.937V35.0773C105.937 35.9531 106.445 36.4491 107.205 36.4491C107.964 36.4491 108.46 35.9531 108.46 35.0773V33.3901H108.122V35.0826H108.121ZM109.192 35.9468C109.448 36.2739 109.81 36.4491 110.248 36.4491C110.785 36.4491 111.188 36.0987 111.188 35.5912C111.188 34.5983 109.676 34.8325 109.676 34.0675C109.676 33.7984 109.881 33.5716 110.248 33.5716C110.517 33.5716 110.755 33.7056 110.919 33.9514L111.175 33.7467C110.971 33.4661 110.638 33.274 110.242 33.274C109.698 33.274 109.336 33.6423 109.336 34.0675C109.336 35.1069 110.848 34.8557 110.848 35.6028C110.848 35.9067 110.627 36.1515 110.242 36.1515C109.926 36.1515 109.67 36.0175 109.448 35.7368L109.192 35.9468ZM112.254 32.4615C112.399 32.4615 112.516 32.3507 112.516 32.1988C112.516 32.0585 112.399 31.9424 112.254 31.9424C112.108 31.9424 111.986 32.0595 111.986 32.1988C111.986 32.3507 112.108 32.4615 112.254 32.4615ZM112.079 36.3319H112.423V33.389H112.079V36.3319ZM114.88 33.273C113.94 33.273 113.304 34.02 113.304 34.861C113.304 35.702 113.94 36.4491 114.88 36.4491C115.82 36.4491 116.462 35.702 116.462 34.861C116.462 34.02 115.826 33.273 114.88 33.273ZM114.886 36.1219C114.168 36.1219 113.66 35.5321 113.66 34.861C113.66 34.1899 114.168 33.6001 114.886 33.6001C115.605 33.6001 116.095 34.1836 116.095 34.861C116.095 35.5384 115.581 36.1219 114.886 36.1219ZM117.335 36.3319H117.679V34.2184C117.907 33.8385 118.217 33.6001 118.684 33.6001C119.198 33.6001 119.542 33.9325 119.542 34.5402V36.333H119.886V34.5286C119.886 33.7172 119.402 33.273 118.73 33.273C118.269 33.273 117.937 33.4713 117.679 33.7921V33.389H117.335V36.3319Z" fill="black"/>
<path d="M51.7455 15.9089H55.4059C58.3604 15.9089 60.3568 18.052 60.3568 20.5676C60.3568 23.0831 58.3604 25.2262 55.4059 25.2262H51.7455V15.91V15.9089ZM53.6353 17.6257V23.5083H55.4323C57.1628 23.5083 58.4132 22.2179 58.4132 20.5676C58.4132 18.9173 57.1618 17.6268 55.4323 17.6268H53.6353V17.6257Z" fill="black"/>
<path d="M71.642 20.5676C71.642 23.2298 69.6319 25.4921 66.7048 25.4921C63.7777 25.4921 61.7539 23.2298 61.7539 20.5676C61.7539 17.9054 63.764 15.6431 66.7048 15.6431C69.6456 15.6431 71.642 17.9054 71.642 20.5676ZM69.6983 20.5676C69.6983 18.7843 68.4469 17.4137 66.7037 17.4137C64.9606 17.4137 63.6965 18.7843 63.6965 20.5676C63.6965 22.3508 64.9479 23.7215 66.7037 23.7215C68.4596 23.7215 69.6983 22.3508 69.6983 20.5676Z" fill="black"/>
<path d="M73.5856 15.9089H76.4335C78.4827 15.9089 79.7479 16.9599 79.7479 18.6904C79.7479 19.8215 79.2023 20.6604 78.2442 21.0994L81.1586 25.2251H78.9364L76.4473 21.4592H75.4754V25.2251H73.5856V15.9089ZM75.4754 17.479V19.888H76.5401C77.3389 19.888 77.8042 19.4227 77.8042 18.664C77.8042 17.9581 77.3378 17.479 76.5401 17.479H75.4754Z" fill="black"/>
<path d="M85.2443 15.9089H87.7197L91.2462 25.2251H89.2371L88.3455 22.8024H84.6186L83.7269 25.2251H81.7168L85.2432 15.9089H85.2443ZM87.7598 21.1922L86.482 17.6922L85.2042 21.1922H87.7598Z" fill="black"/>
</svg>

<svg xmlns="http://www.w3.org/2000/svg" width="127" height="51" fill="none" viewBox="0 0 127 51">
    <path fill="#5b12eb" d="M25.743 22.349c1.304 1.302 1.304 3.412 0 4.777-1.302 1.304-3.475 1.304-4.776 0-1.304-1.303-1.304-3.475 0-4.777 1.302-1.304 3.475-1.304 4.776 0"/>
    <path fill="#5b12eb" d="M24.834 6.79H8.421c-.83 0-1.505.674-1.505 1.505v35.429c0 .83.674 1.504 1.505 1.504h16.414c9.487 0 17.178-7.691 17.178-17.18v-4.08c0-9.488-7.69-17.179-17.178-17.179zm-1.512 30.39s-9.863-4.344-9.863-12.473a9.85 9.85 0 0 1 9.863-9.866 9.85 9.85 0 0 1 9.865 9.866c0 8.13-9.865 12.472-9.865 12.472"/>
    <path fill="#000" d="M51.746 36.334h.373v-1.88h.724c.776 0 1.256-.438 1.256-1.098s-.48-1.109-1.256-1.109h-1.098zm1.103-3.76c.537 0 .858.293.858.77 0 .479-.32.783-.858.783h-.73v-1.554zm2.036 3.76h.344v-4.379h-.344zm2.276.081c.408 0 .806-.175 1.056-.507v.426h.339V34.32c0-.648-.444-1.045-1.121-1.045-.508 0-.91.216-1.162.56l.263.205c.198-.28.508-.45.887-.45.462 0 .794.257.794.73v.275l-1.051.175c-.618.106-.957.409-.957.853 0 .484.38.793.952.793m-.602-.8c0-.292.217-.507.683-.59l.975-.163v.671c-.222.38-.59.584-1.016.584-.397 0-.643-.217-.643-.503zm3.25-.21c0 .72.384.987.986.987.186 0 .332-.023.467-.07v-.315a1.2 1.2 0 0 1-.431.064c-.397 0-.672-.128-.672-.665V33.7h1.104v-.309H60.16v-.735h-.35v.735h-.556v.31h.555zm4.764.444-.262-.21c-.217.304-.56.496-.975.496-.724 0-1.232-.544-1.232-1.29v-.07h2.377c.017-.07.023-.158.023-.245 0-.695-.503-1.256-1.29-1.256-.882 0-1.466.677-1.466 1.588 0 .858.624 1.588 1.588 1.588.537 0 .968-.233 1.237-.601m-1.366-2.271c.572 0 .928.408.945.922h-2.014c.11-.578.52-.922 1.068-.922m1.816-.187v.31h.555v2.632h.35V33.7h1.104v-.309h-1.104v-.397c0-.46.263-.724.643-.724.187 0 .332.053.46.146l.153-.292a1.2 1.2 0 0 0-.625-.169c-.583 0-.981.415-.981 1.045v.391zm3.774-.117c-.94 0-1.576.747-1.576 1.588s.636 1.588 1.576 1.588 1.582-.747 1.582-1.588c0-.84-.636-1.588-1.582-1.588m.007 2.849c-.719 0-1.227-.59-1.227-1.26 0-.672.508-1.262 1.227-1.262.718 0 1.208.584 1.208 1.261s-.514 1.261-1.209 1.261m2.449.21h.344v-2.107c.221-.368.484-.567.887-.567.106 0 .181.018.27.041v-.332a.9.9 0 0 0-.246-.035c-.396 0-.67.175-.91.48v-.42h-.344v2.942zm2.28 0h.344v-2.114c.198-.373.502-.618.945-.618.48 0 .8.31.8.881v1.851h.344v-1.862q0-.125-.018-.24c.245-.426.549-.63.957-.63.48 0 .806.308.806.88v1.85h.34V34.47c0-.776-.457-1.196-1.098-1.196-.508 0-.841.245-1.092.631-.17-.415-.538-.631-.993-.631-.456 0-.754.198-.993.508v-.392h-.344v2.943zm8.16-.484-.262-.21c-.216.304-.56.496-.975.496-.724 0-1.231-.544-1.231-1.29v-.07H81.6c.018-.07.023-.158.023-.245 0-.695-.502-1.256-1.29-1.256-.882 0-1.466.677-1.466 1.588 0 .858.625 1.588 1.588 1.588.537 0 .969-.233 1.238-.601m-1.366-2.271c.572 0 .929.408.946.922h-2.015c.111-.578.52-.922 1.068-.922zm3.518 1.284c0 .858.602 1.588 1.519 1.588.46 0 .852-.193 1.126-.537v.42h.345v-4.379h-.344v1.856a1.4 1.4 0 0 0-1.127-.537c-.917 0-1.519.73-1.519 1.588zm.362 0c0-.694.49-1.26 1.185-1.26.45 0 .853.21 1.097.612v1.296c-.24.397-.642.613-1.097.613-.694 0-1.185-.567-1.185-1.26m6.324.987-.263-.21c-.216.304-.56.496-.975.496-.724 0-1.231-.544-1.231-1.29v-.07h2.376c.018-.07.023-.158.023-.245 0-.695-.502-1.256-1.29-1.256-.881 0-1.466.677-1.466 1.588 0 .858.625 1.588 1.588 1.588.537 0 .969-.233 1.238-.601m-1.367-2.271c.572 0 .929.408.946.922h-2.015c.111-.578.52-.922 1.068-.922zm3.793 2.755h.344v-4.379h-.344zm1.604-2.593.554-1.494h-.396l-.473 1.494zm1.667-1.279c.145 0 .262-.11.262-.262a.26.26 0 0 0-.262-.257c-.146 0-.27.117-.27.257 0 .152.123.263.27.263m-.175 3.87h.344V33.39h-.345zm1.499 0h.344v-2.113c.228-.38.537-.618 1.004-.618.514 0 .858.332.858.94v1.793h.344v-1.804c0-.812-.484-1.256-1.155-1.256-.461 0-.794.198-1.051.52v-.404h-.344zm4.956-.21c-.724 0-1.231-.566-1.231-1.26s.507-1.26 1.226-1.26c.408 0 .747.192.957.49l.274-.217a1.5 1.5 0 0 0-1.231-.601c-.952 0-1.582.73-1.582 1.588s.631 1.588 1.582 1.588a1.5 1.5 0 0 0 1.231-.601l-.274-.217c-.21.298-.544.49-.952.49m2 .21h.344v-4.378h-.344zm3.613-1.248c0 .665-.374 1.039-.917 1.039-.544 0-.923-.374-.923-1.04V33.39h-.344v1.687c0 .876.508 1.372 1.268 1.372.759 0 1.255-.496 1.255-1.372V33.39h-.338v1.693zm1.071.864a1.29 1.29 0 0 0 1.056.502c.537 0 .94-.35.94-.858 0-.993-1.512-.758-1.512-1.523 0-.27.205-.496.572-.496.269 0 .507.134.671.38l.256-.205a1.14 1.14 0 0 0-.933-.473c-.544 0-.906.368-.906.794 0 1.039 1.512.788 1.512 1.535 0 .304-.221.548-.606.548-.316 0-.572-.134-.794-.414zm3.062-3.486c.145 0 .262-.11.262-.262a.26.26 0 0 0-.262-.257.265.265 0 0 0-.268.257c0 .152.122.263.268.263m-.175 3.87h.344V33.39h-.344zm2.801-3.058c-.94 0-1.576.747-1.576 1.588s.636 1.588 1.576 1.588 1.582-.747 1.582-1.588-.636-1.588-1.582-1.588m.006 2.849c-.718 0-1.226-.59-1.226-1.261s.508-1.26 1.226-1.26c.719 0 1.209.583 1.209 1.26s-.514 1.26-1.209 1.26m2.449.21h.344v-2.114c.228-.38.538-.618 1.005-.618.514 0 .858.332.858.94v1.793h.344v-1.804c0-.812-.484-1.256-1.156-1.256-.461 0-.793.198-1.051.52v-.404h-.344zM51.746 15.909h3.66c2.954 0 4.95 2.143 4.95 4.659s-1.996 4.658-4.95 4.658h-3.66zm1.89 1.717v5.882h1.796c1.73 0 2.981-1.29 2.981-2.94s-1.251-2.941-2.98-2.941zM71.642 20.568c0 2.662-2.01 4.924-4.937 4.924s-4.951-2.262-4.951-4.924 2.01-4.925 4.95-4.925c2.942 0 4.938 2.262 4.938 4.925m-1.944 0c0-1.784-1.251-3.154-2.994-3.154s-3.007 1.37-3.007 3.154 1.25 3.153 3.007 3.153c1.756 0 2.994-1.37 2.994-3.153M73.586 15.909h2.847c2.05 0 3.315 1.05 3.315 2.781 0 1.131-.546 1.97-1.504 2.41l2.915 4.125h-2.223l-2.489-3.766h-.972v3.766h-1.89zm1.89 1.57v2.409h1.064c.799 0 1.264-.465 1.264-1.224 0-.706-.466-1.185-1.264-1.185zM85.244 15.909h2.476l3.526 9.316h-2.009l-.891-2.423h-3.727l-.892 2.423h-2.01zm2.516 5.283-1.278-3.5-1.278 3.5z"/>
</svg>
